X:1
T:A Farewell Song
T:Dedicated to Miss Beverley Robinson
T:A Farewell Song
T:Maude Valérie White
T:(Composer, from the German)
T:OpenScore (CC0)
T:OpenScore (CC0)
T:OpenScore (CC0)
T:OpenScore (CC0)
T:OpenScore (CC0)
C:Maude Valérie White
Z:Composer (from the German)
Z:OpenScore (CC0)
%%score 1 { 2 | ( 3 4 5 ) }
L:1/8
Q:1/4=94
M:9/8
K:C
V:1 treble nm="Voice"
V:2 treble nm="Piano"
V:3 bass 
V:4 bass 
V:5 bass 
V:1
"^Andantino" z9 ||[M:6/8] z6 | z6 ||[M:9/8]"^VOICE" z2 z z2!p! E D2 C | %4
w: |||Fare- well, fare-|
!<(! F3- F2 E D2- D/ C/!<)! | c3- c2!p! B c2 d | (c3 G2)!p! E F2 G | A3- A2!<(! E A2 G | %8
w: well _ for I _ must|go, _ Must part from|her _ my heart loves|so; _ But ere I|
 F3- F2 A f2 e!<)! | d3- d2!p!!<(! D E2- E/ F/ ||[M:6/8] A2- A/ G/!<)![Q:1/4=90]!<(! B3-!<)! | %11
w: say _ good- bye, good-|bye, _ I’ll leave _ my|heart _ in hers|
!>(! B2!>)!!>(! A E2-"^rall."[Q:1/4=86] E/ D/ ||[M:9/8] C6- C!>)! z z[Q:1/4=94] ||[M:6/8] z6 | %14
w: _ for aye _ for|aye _||
 z6[Q:1/4=90] ||[M:9/8] z2 z !fermata!z2[Q:1/4=94]!pp! E D2 C | F3- F2!<(! E D2- D/ C/!<)! | %17
w: |For the dear|God _ in Heav’n * a-|
 c3- c2 B c2{ce} d | (c3 G2) E F2 G | A3- A2!<(! E A2 G | F3- F2 A f2 e!<)! | %21
w: bove _ Looks kind- ly|down _ on all true|love, _ And there- fore|gave _ my heart to|
!<(! d3-!<)!!>(! d2!>)!!pp! D!<(! E2- E/ F/ ||[M:6/8] A2- A/ G/ B3-!<)! | %23
w: thee, _ And bless’d _ thy|faith- * ful faith-|
!>(! B2 A"^rall." E2- E/ D/!>)! ||[M:9/8] C6- C z z ||[M:6/8] z6 | z6[Q:1/4=90] || %27
w: * ful love _ for|me. _|||
[M:9/8] z2 z !fermata!z2"^Giocoso"[Q:1/4=100]!mp! E D2 C |!<(! F3- F2 E D2- D/ C/!<)! | %29
w: And I’ll re-|turn _ with- in _ the|
 c3- c2 B c2{ce} d | (c3 G2) E F2 G | A3- A2!mp! E!<(! A2 G | F3- F2 A f2 e!<)! | %33
w: year, _ For none but|those _ who lose thee,|dear _ Know how it|hurts _ to part with|
[Q:1/4=94] d3- d2!p! D E2- E/ F/ ||[M:6/8] A2- A/ G/[Q:1/4=90]!<(! B3-!<)! | %35
w: thee, _ Good- bye, _ good-|bye, _ my love,|
!>(! B2!>)! A"^rall."[Q:1/4=86] E2 D ||[M:9/8]"^Religioso"[Q:1/4=86] C6-!<(! C3-!<)! || %37
w: _ re- mem- ber|me! _|
[M:6/8]!>(! C6-!>)![Q:1/4=66] | C z z z2 z | z6 |] %40
w: _|||
V:2
 z2 z z2 z!p!!<(! [CD][CE]>[CF] ||[M:6/8] [CEA]2- [CEA]/[CG]/- [CEGB]3-!<)! | %2
!>(! [CEGB]2 [CEA] E2- E/D/!>)! ||[M:9/8] [G,C]3- [G,C] !fermata!z [CE] [B,D]2 C | %4
 [B,F]3- [B,F]2 [G,CE] [G,B,D]2- [G,B,D]/[G,C]/ | [CFGc]3- [CFGc]2 [B,FGB] [CFGc]2 [Dd] | %6
 [EGc]3 G2 [_B,CE] [B,CF]2 [B,CG] | [A,CFA]3- [A,CFA]2"_cres." [G,A,^CE] [A,DA]2 [G,EG] | %8
 [F,A,DF]3- [F,A,DF]2 [G,A,^CGA] [GAdf]2 [GA^ce] | %9
 [DFAd]3- [DFAd]2!p! [A,D] [G,A,^CE]2- [G,A,CE]/[F,A,DF]/ ||[M:6/8] [CEA]2- [CEA]/[CG]/- [CEGB]3- | %11
 [CEGB]2 [CEA] E2-"_rall." E/D/ ||[M:9/8]!mp!!<(! [A,C]3- [A,C]2 [DAd] [EAe]2- [EAe]/[Ff]/ || %13
[M:6/8] [Acea]2- [Acea]/[Gg]/!<)!!>(! [Beb]3- | [Beb]2 [Aea] [B,EGe-]2"_rall." e/[Dd]/!>)! || %15
[M:9/8] [CEc]3- [CEc] !fermata!z!pp! [CE] [B,D]2 C | %16
 [B,F]3- [B,F]2 [G,CE] [G,B,D]2- [G,B,D]/[G,C]/ | [CFGc]3- [CFGc]2 [B,FGB] [CFGc]2 [Dd] | %18
 [EGc]3 G2 [_B,CE] [B,CF]2 [B,CG] | [A,CFA]3- [A,CFA]2 [G,A,^CE]"_cres." [A,DA]2 [G,EG] | %20
 [F,A,DF]3- [F,A,DF]2 [G,A,^CGA] [GAdf]2 [GA^ce] | %21
 [DFAd]3- [DFAd]2!pp! [A,D] [G,A,^CE]2- [G,A,CE]/[F,A,DF]/ || %22
[M:6/8] [CEA]2- [CEA]/[CG]/- [CEGB]3- | [CEGB]2 [CEA]"_col canto" [F,B,E]2 [G,B,D] || %24
[M:9/8] [G,C]3- [G,C]2!p!!<(! [DAd] [EAe]2- [EAe]/[Ff]/ || %25
[M:6/8] [Acea]2- [Acea]/[Gg]/!<)!!>(! [Beb]3- | %26
 [Beb]2 [Aea] !arpeggio![B,EGe-]2"_rall." e/[Dd]/!>)! || %27
[M:9/8] [CEGc]3- [CEGc] !fermata!z!mp! [CE] [B,D]2 C | %28
!<(! [B,F]3- [B,F]2 [G,CE] [G,B,D]2 [G,B,D]/[G,C]/!<)! | [CFGc]3- [CFGc]2 [B,FGB] [CFGc]2 [Dd] | %30
 [EGc]3 G2 [_B,CE] [B,CF]2 [G,B,CG] | [A,CFA]3- [A,CFA]2!mp! [G,A,^CE] [A,DA]2 [G,EG] | %32
 [F,A,DF]3- [F,A,DF]2 [G,A,^CGA] [GAdf]2 [GA^ce] | %33
 [DFAd]3- [DFAd]2!p! [A,D] [G,A,^CE]2- [G,A,CE]/[F,A,DF]/ ||[M:6/8] [CEA]2- [CEA]/[CG]/- [CEGB]3- | %35
 [CEGB]2 [CEA]"^rall.""_col canto" [F,B,E]2 [F,B,D] || %36
[M:9/8] C3- C2!<(! [DFAd] [EAce]2 [FAcf]-!<)! || %37
[M:6/8]!>(! [FAcf]3-"_rall." [FAcf]!tenuto!.[EGce]!tenuto!.[DAcd]!>)! |!p! [Gceg]6- | %39
 [Gceg] z z z2 z |] %40
V:3
 z2 z z2 z [F,A,][E,A,][D,A,] ||[M:6/8] [G,,E,G,]2- [G,,E,G,]/[G,,E,G,]/- [G,,E,G,]3- | %2
 [G,,E,G,]2 [G,,E,G,] F,2 F, ||[M:9/8] !arpeggio![C,,G,,E,]3- [C,,G,,E,] z [C,G,] [F,G,]2 [E,G,] | %4
 [D,G,]3- [D,G,]2 [C,,G,,C,] [F,,F,]2 [E,,E,] | %5
 [D,,G,,D,]3- [D,,G,,D,]2 [G,,D,G,] [G,,D,A,]2 [F,G,B,] | %6
 [E,G,C]3 G,2 [C,,G,,C,] [C,,G,,D,]2 [C,E,] | %7
 [F,,C,F,]3- [F,,C,F,]2 [A,,,E,,-A,,] [B,,,E,,B,,]2 [^C,,^C,] | %8
 [D,,A,,D,]3- [D,,A,,D,]2 [E,,A,,E,]!ped!{/[A,,,,A,,,]} [G,A,DF]2 [G,A,^CE]!ped-up! | %9
 [F,,A,,D,F,]3- [F,,A,,D,F,]2 [F,,F,] [E,,A,,-E,]2 [D,,A,,D,] || %10
[M:6/8] !arpeggio![G,,E,G,]2- [G,,E,G,]/[G,,E,G,]/- [G,,E,G,]3- | %11
 [G,,E,G,]2 [G,,E,G,] [G,,D,F,]2 F, ||[M:9/8] [A,,E,]3- [A,,E,]2 [F,A,C] [E,A,C]2 [D,A,C] || %13
[M:6/8]!ped!{/[G,,,G,,]} [A,CE]2 G,!ped-up![K:treble] [B,CEG]3- | %14
 [B,CEG]2 [A,CEG][K:bass] !arpeggio![G,,,G,,F,G,]2 F, || %15
[M:9/8] !arpeggio![C,,G,,E,]3- [C,,G,,E,] !fermata!z [C,G,] [F,G,]2 [E,G,] | %16
 [D,G,]3- [D,G,]2 [C,,G,,C,] [F,,G,,-F,]2 [E,,G,,E,] | %17
 [D,,G,,D,]3- [D,,G,,D,]2 [G,,D,G,] [G,,D,A,]2 [F,G,B,] | %18
 [E,G,C]3 G,2 [C,,G,,C,] [C,,G,,D,]2 [C,E,] | %19
 [F,,C,F,]3- [F,,C,F,]2 [A,,,E,,-A,,] [B,,,B,,]2 [^C,,E,,^C,] | %20
 [D,,A,,D,]3- [D,,A,,D,]2 [E,,A,,E,]{/[A,,,,A,,,]} [G,A,DF]2 [G,A,^CE] | %21
 [F,,A,,D,F,]3- [F,,A,,D,F,]2 [F,,F,] (([E,,A,,-E,]2 [D,,A,,D,])) || %22
[M:6/8] !arpeggio![G,,E,G,]2- [G,,E,G,]/[G,,E,G,]/- [G,,E,G,]3- | %23
 [G,,E,G,]2 [G,,E,G,] !arpeggio![G,,G,]2 [F,,G,,F,] || %24
[M:9/8] [E,,G,,E,]3- [E,,G,,E,]2 [F,A,C] [E,A,C]2 [D,A,C] || %25
[M:6/8]{/[G,,,G,,]} [A,CE]2 G,[K:treble] [B,CEG]3- | [B,CEG]2 [A,CEA][K:bass] [G,,,G,,F,G,]2 F, || %27
[M:9/8] [C,,G,,E,]3- [C,,G,,E,] !fermata!z [C,G,] [F,G,]2 [E,G,] | %28
 [D,G,]3- [D,G,]2 [C,,G,,C,] [F,,G,,-F,]2 [E,,G,,E,] | %29
 [D,,G,,D,]3- [D,,G,,D,]2 [G,,D,G,] [G,,D,A,]2 [F,G,B,] | %30
 [E,G,C]3 G,2 [C,,G,,C,] [C,,G,,D,]2 [C,E,] | %31
 [F,,C,F,]3- [F,,C,F,]2 [A,,,E,,-A,,] [B,,,B,,]2 [^C,,^C,] | %32
 [D,,A,,D,]3- [D,,A,,D,]2 [E,,A,,E,]!ped!{/[A,,,,A,,,]} [G,A,DF]2 [G,A,^CE]!ped-up! | %33
 [F,,A,,D,F,]3- [F,,A,,D,F,]2 [F,,F,] [E,,A,,E,]2 [D,,A,,D,] || %34
[M:6/8] !arpeggio![G,,E,G,]2- [G,,E,G,]/[G,,E,G,]/- [G,,E,G,]3- | %35
 [G,,E,G,]2 [G,,E,G,] !arpeggio![G,,,G,,G,]2 [G,,,G,,] || %36
[M:9/8] [C,,,C,,]3- [C,,,C,,]2 [F,A,C] [E,A,C]2 [D,A,C]- || %37
[M:6/8] [D,A,C]3- [D,A,C]!tenuto!.[E,G,C]!tenuto!.[F,A,C] |!ped!{/[C,,,C,,]} [E,G,CE]6-!ped-up! | %39
 [E,G,CE] z z z2 z |] %40
V:4
 x9 ||[M:6/8] x6 | x3[I:staff -1] [G,B,]3 ||[M:9/8] x9 | x9 | x9 | x5[I:staff +1] E, F,2 G, | x9 | %8
 x9 | x9 ||[M:6/8] x6 | x3[I:staff -1] [G,B,]3 ||[M:9/8] x9 ||[M:6/8] x3[I:staff +1][K:treble] x3 | %14
 x3[K:bass] x3 ||[M:9/8] x9 | x9 | x9 | x5 E, F,2 G, | x9 | x9 | x9 ||[M:6/8] x6 | x6 || %24
[M:9/8] x9 ||[M:6/8] x3[K:treble] x3 | x3[K:bass] x3 ||[M:9/8] x9 | x9 | x9 | x5 E, F,2 x | x9 | %32
 x9 | x9 ||[M:6/8] x6 | x6 ||[M:9/8] [C,E,G,]3- [C,E,G,]2 x4 ||[M:6/8] x6 | x6 | x6 |] %40
V:5
 x9 ||[M:6/8] x6 | x3 [G,,D,]3 ||[M:9/8] x9 | x6 G,,3 | x9 | x9 | x9 | x9 | x9 || %10
[M:6/8] [G,,,G,,] z z x3 | x6 ||[M:9/8] x9 ||[M:6/8] x3[K:treble] x3 | x3[K:bass] x3 ||[M:9/8] x9 | %16
 x9 | x9 | x9 | x6 E,,3 | x9 | x9 ||[M:6/8] G,,, z z x3 | x3 G,,,2 x ||[M:9/8] x9 || %25
[M:6/8] x3[K:treble] x3 | x3[K:bass] x3 ||[M:9/8] x9 | x9 | x9 | x9 | x6 E,,3 | x9 | x9 || %34
[M:6/8] G,,, z z x3 | x6 ||[M:9/8] x9 ||[M:6/8] x6 | %38
 z"_trem." !///-!C,,, C,, !///-!C,,,3/2 C,,3/2- | [C,,,C,,] z z z2 z |] %40

